packages/kaspersky-hexa-ui-icons/src/iconsSVGs/48/WebProtection2.svg

<svg width="48" height="48" viewBox="0 0 48 48" fill="none" xmlns="http://www.w3.org/2000/svg">
<path fill-rule="evenodd" clip-rule="evenodd" d="M24 0C10.7452 0 0 10.7452 0 24C0 37.2548 10.7452 48 24 48H25V18H34.08C34.3594 19.9878 34.4998 21.9927 34.5 24V25H36.5V24C36.5034 21.9939 36.3764 19.9897 36.12 18H45.12C45.6889 19.9498 45.985 21.969 46 24V25H48V24C48 10.7452 37.2548 0 24 0ZM23 2.11V16H14.25C15.69 8.52 19.07 2.93 23 2.11ZM18 2.83C15.29 5.62 13.21 10.29 12.19 16H3.51C6.02945 9.59576 11.3849 4.72813 18 2.83ZM2.84 18H11.84C11.3334 21.984 11.3334 26.016 11.84 30H2.84C1.72008 26.0784 1.72008 21.9216 2.84 18ZM3.51 32H12.19C13.19 37.71 15.29 42.38 18.02 45.17C11.3974 43.2773 6.03358 38.4089 3.51 32ZM14.25 32H23V45.89C19.07 45.07 15.69 39.48 14.25 32ZM23 30H13.92C13.36 26.0196 13.36 21.9804 13.92 18H23V30ZM25 16V2.11C28.93 2.93 32.31 8.52 33.75 16H25ZM35.81 16C34.81 10.29 32.71 5.62 29.98 2.83C36.6026 4.72272 41.9664 9.59115 44.49 16H35.81ZM27 48H48V27H27V48ZM29 29H46V46H29V29ZM35 39H37V42H35V44H33V42H31V39H33V31H35V39ZM42 33H44V36H42V44H40V36H38V33H40V31H42V33Z"  fill="currentColor"/>
</svg>

<svg xmlns="http://www.w3.org/2000/svg" width="48" height="48" fill="none" viewBox="0 0 48 48"><path fill="currentColor" fill-rule="evenodd" d="M24 0C10.7452 0 0 10.7452 0 24s10.7452 24 24 24h1V18h9.08a43.1 43.1 0 0 1 .42 6v1h2v-1a46.3 46.3 0 0 0-.38-6h9c.5689 1.9498.865 3.969.88 6v1h2v-1C48 10.7452 37.2548 0 24 0m-1 2.11V16h-8.75C15.69 8.52 19.07 2.93 23 2.11m-5 .72c-2.71 2.79-4.79 7.46-5.81 13.17H3.51A22.13 22.13 0 0 1 18 2.83M2.84 18h9a47.57 47.57 0 0 0 0 12h-9a21.85 21.85 0 0 1 0-12m.67 14h8.68c1 5.71 3.1 10.38 5.83 13.17A22.13 22.13 0 0 1 3.51 32m10.74 0H23v13.89c-3.93-.82-7.31-6.41-8.75-13.89M23 30h-9.08a43.07 43.07 0 0 1 0-12H23zm2-14V2.11c3.93.82 7.31 6.41 8.75 13.89zm10.81 0c-1-5.71-3.1-10.38-5.83-13.17A22.13 22.13 0 0 1 44.49 16zM27 48h21V27H27zm2-19h17v17H29zm6 10h2v3h-2v2h-2v-2h-2v-3h2v-8h2zm7-6h2v3h-2v8h-2v-8h-2v-3h2v-2h2z" clip-rule="evenodd"/></svg>
